X: 12370
T: Famous Ballymote, The
R: reel
M: 4/4
K: Dmixolydian
|FDAD FAAB|cAAG EFGE|FDAD FAAB|cAGE FD D2|
FD D2 FAAB|cAAG EFGE|FDAD FAAB|cAGE FD D2||
FDFA d2 ed|cAAG EFGE|FDFA d2 ed|cAGE FDAD|
FDFA d2 ed|cAAG EFGE|FD D2 d2 ed|cAGE =F4||

